src/assets/tokens/sanUSDC_EUR.svg

<svg width="62" height="35" viewBox="0 0 62 35" fill="none" xmlns="http://www.w3.org/2000/svg">
<g clip-path="url(#clip0_624_15861)">
<circle cx="44.4239" cy="17.3988" r="17.1436" fill="url(#paint0_linear_624_15861)"/>
<path d="M53.7757 15.0377L44.4116 5.47559L35.0466 15.0377L39.7287 19.8183L44.4116 15.0377L49.0937 19.8183L53.7757 15.0377Z" fill="white"/>
<path d="M44.0342 28.4557C43.5687 28.4557 43.1682 28.3718 42.8326 28.204C42.5025 28.0308 42.2481 27.7872 42.0695 27.4733C41.8963 27.154 41.8097 26.7778 41.8097 26.3448V22.6589H42.8813V26.3773C42.8813 26.7237 42.9788 26.997 43.1736 27.1973C43.3739 27.3975 43.6607 27.4977 44.0342 27.4977C44.4076 27.4977 44.6918 27.3975 44.8867 27.1973C45.0869 26.997 45.187 26.7237 45.187 26.3773V22.6589H46.2587V26.3448C46.2587 26.7778 46.1694 27.154 45.9908 27.4733C45.8176 27.7872 45.5632 28.0308 45.2276 28.204C44.8975 28.3718 44.4997 28.4557 44.0342 28.4557Z" fill="#1F2333"/>
<path d="M48.7088 28.342V22.6589H51.1769C51.5341 22.6589 51.8453 22.7212 52.1106 22.8457C52.3758 22.9701 52.5814 23.146 52.7276 23.3734C52.8737 23.6007 52.9468 23.8686 52.9468 24.1771V24.2745C52.9468 24.6155 52.8656 24.8916 52.7032 25.1027C52.5408 25.3137 52.3406 25.468 52.1024 25.5654V25.7116C52.3189 25.7224 52.4867 25.7982 52.6058 25.9389C52.7249 26.0742 52.7844 26.2555 52.7844 26.4828V28.342H51.7127V26.6371C51.7127 26.5072 51.6776 26.4016 51.6072 26.3205C51.5422 26.2393 51.4313 26.1987 51.2743 26.1987H49.7805V28.342H48.7088ZM49.7805 25.2244H51.0632C51.3176 25.2244 51.5152 25.1568 51.6559 25.0215C51.802 24.8807 51.8751 24.6967 51.8751 24.4694V24.3882C51.8751 24.1609 51.8048 23.9796 51.664 23.8443C51.5233 23.7035 51.323 23.6332 51.0632 23.6332H49.7805V25.2244Z" fill="#1F2333"/>
<path fill-rule="evenodd" clip-rule="evenodd" d="M35.801 28.4758V22.5251H39.7219V23.767H37.1402V24.8552H39.4946V26.097H37.1402V27.234H39.7707V28.4758H35.801ZM42.7716 28.3231L42.7704 28.3225C42.4184 28.1378 42.1448 27.8764 41.9531 27.5395L41.9525 27.5383L41.9518 27.5371C41.7661 27.1947 41.6758 26.7958 41.6758 26.3448V22.5251H43.0151V26.3773C43.0151 26.6972 43.1042 26.9338 43.2688 27.1033C43.4368 27.2709 43.6849 27.3639 44.0341 27.3639C44.3841 27.3639 44.6287 27.2705 44.7907 27.104L44.792 27.1027C44.9618 26.9329 45.0532 26.6966 45.0532 26.3773V22.5251H46.3924V26.3448C46.3924 26.7963 46.2992 27.1956 46.1077 27.5382C45.921 27.8765 45.6467 28.1383 45.2889 28.3229L45.2882 28.3233C44.9351 28.5027 44.5154 28.5895 44.0341 28.5895C43.5528 28.5895 43.1308 28.5027 42.7727 28.3237L42.7716 28.3231ZM45.9908 27.4733C46.1694 27.154 46.2587 26.7778 46.2587 26.3448V22.6589H45.187V26.3773C45.187 26.7237 45.0869 26.997 44.8867 27.1973C44.6918 27.3975 44.4076 27.4977 44.0342 27.4977C43.6607 27.4977 43.3739 27.3975 43.1736 27.1973C42.9788 26.997 42.8813 26.7237 42.8813 26.3773V22.6589H41.8097V26.3448C41.8097 26.7778 41.8963 27.154 42.0695 27.4733C42.2481 27.7872 42.5025 28.0308 42.8326 28.204C43.1682 28.3718 43.5687 28.4557 44.0342 28.4557C44.4997 28.4557 44.8975 28.3718 45.2276 28.204C45.5632 28.0308 45.8176 27.7872 45.9908 27.4733ZM48.575 28.4758V22.5251H51.1769C51.5495 22.5251 51.8809 22.5901 52.1674 22.7246C52.4534 22.8588 52.6792 23.0508 52.8401 23.301C53.002 23.5529 53.0805 23.8467 53.0805 24.1771V24.2746C53.0805 24.6367 52.9941 24.9439 52.8092 25.1842C52.6717 25.3629 52.5082 25.5052 52.3191 25.6098C52.4729 25.6508 52.6041 25.7302 52.707 25.8515C52.8522 26.0169 52.9181 26.2322 52.9181 26.4828V28.4758H51.5789V26.6371C51.5789 26.5323 51.5511 26.4601 51.506 26.4081L51.5043 26.4061L51.5027 26.404C51.4739 26.3681 51.4118 26.3325 51.2743 26.3325H49.9142V28.4758H48.575ZM49.7805 26.1987H51.2743C51.4313 26.1987 51.5422 26.2393 51.6072 26.3205C51.6776 26.4016 51.7127 26.5072 51.7127 26.6371V28.342H52.7844V26.4828C52.7844 26.2555 52.7249 26.0742 52.6058 25.9389C52.4867 25.7982 52.3189 25.7224 52.1024 25.7116V25.5654C52.3406 25.468 52.5408 25.3137 52.7032 25.1027C52.8656 24.8916 52.9468 24.6155 52.9468 24.2745V24.1771C52.9468 23.8686 52.8737 23.6007 52.7276 23.3734C52.5814 23.146 52.3758 22.9701 52.1106 22.8457C51.8453 22.7212 51.5341 22.6589 51.1769 22.6589H48.7088V28.342H49.7805V26.1987ZM51.5703 23.9398L51.5694 23.9389C51.4607 23.8302 51.2988 23.767 51.0632 23.767H49.9142V25.0906H51.0632C51.2938 25.0906 51.4542 25.0298 51.5631 24.9251C51.6797 24.8127 51.7413 24.6652 51.7413 24.4694V24.3882C51.7413 24.1908 51.6814 24.0466 51.5713 23.9407L51.5703 23.9398ZM51.6559 25.0215C51.5152 25.1568 51.3176 25.2244 51.0632 25.2244H49.7805V23.6332H51.0632C51.323 23.6332 51.5233 23.7035 51.664 23.8443C51.8048 23.9796 51.8751 24.1609 51.8751 24.3882V24.4694C51.8751 24.6967 51.802 24.8807 51.6559 25.0215Z" fill="#1F2333"/>
</g>
<path d="M17.775 34.8283C27.3112 34.8283 34.983 27.1564 34.983 17.6202C34.983 8.08398 27.3112 0.412109 17.775 0.412109C8.23877 0.412109 0.566895 8.08398 0.566895 17.6202C0.566895 27.1564 8.23877 34.8283 17.775 34.8283Z" fill="#2775CA"/>
<path d="M22.5068 20.3442C22.5068 17.8347 21.0011 16.9743 17.9897 16.6159C15.8387 16.329 15.4085 15.7555 15.4085 14.7516C15.4085 13.7476 16.1256 13.1025 17.5595 13.1025C18.8501 13.1025 19.5672 13.5327 19.9256 14.6082C19.9974 14.8233 20.2125 14.9667 20.4276 14.9667H21.5747C21.8615 14.9667 22.0766 14.7516 22.0766 14.4649V14.3931C21.7898 12.8157 20.4992 11.5968 18.8501 11.4535V9.73265C18.8501 9.44579 18.635 9.23069 18.2766 9.15894H17.2011C16.9142 9.15894 16.6991 9.37404 16.6273 9.73265V11.3817C14.4763 11.6686 13.1141 13.1025 13.1141 14.8951C13.1141 17.2612 14.5481 18.1932 17.5595 18.5518C19.5672 18.9102 20.2125 19.3404 20.2125 20.4877C20.2125 21.635 19.2086 22.4236 17.8464 22.4236C15.982 22.4236 15.3367 21.6348 15.1216 20.5593C15.0501 20.2726 14.835 20.1291 14.6199 20.1291H13.4008C13.1141 20.1291 12.899 20.3442 12.899 20.631V20.7028C13.1857 22.4952 14.333 23.7858 16.6991 24.1444V25.8652C16.6991 26.1519 16.9142 26.367 17.2727 26.4388H18.3482C18.635 26.4388 18.8501 26.2237 18.9219 25.8652V24.1444C21.0729 23.7858 22.5068 22.2801 22.5068 20.3442Z" fill="white"/>
<path d="M14.1183 27.8759C8.52571 25.8684 5.65764 19.6305 7.73706 14.1095C8.81257 11.098 11.1787 8.80369 14.1183 7.72819C14.4052 7.58485 14.5485 7.36975 14.5485 7.01113V6.00738C14.5485 5.72052 14.4052 5.50542 14.1183 5.43384C14.0466 5.43384 13.9032 5.43384 13.8315 5.50542C7.02 7.65643 3.29153 14.8983 5.44254 21.7097C6.73314 25.7249 9.81631 28.8081 13.8315 30.0987C14.1183 30.242 14.4052 30.0987 14.4768 29.8118C14.5485 29.7402 14.5485 29.6685 14.5485 29.5251V28.5212C14.5485 28.3061 14.3334 28.0194 14.1183 27.8759ZM21.7186 5.50542C21.4318 5.36208 21.1449 5.50542 21.0733 5.79228C21.0016 5.86404 21.0016 5.93563 21.0016 6.07914V7.08289C21.0016 7.36975 21.2167 7.65643 21.4318 7.79995C27.0244 9.80744 29.8925 16.0454 27.813 21.5664C26.7375 24.5778 24.3714 26.8722 21.4318 27.9477C21.1449 28.091 21.0016 28.3061 21.0016 28.6647V29.6685C21.0016 29.9553 21.1449 30.1704 21.4318 30.242C21.5035 30.242 21.6469 30.242 21.7186 30.1704C28.5301 28.0194 32.2586 20.7776 30.1076 13.9661C28.817 9.8792 25.662 6.79603 21.7186 5.50542Z" fill="white"/>
<defs>
<linearGradient id="paint0_linear_624_15861" x1="32.8398" y1="27.788" x2="51.9893" y2="10.7565" gradientUnits="userSpaceOnUse">
<stop offset="0.0729167" stop-color="#AAC4FD"/>
<stop offset="1" stop-color="#76A0FC"/>
</linearGradient>
<clipPath id="clip0_624_15861">
<rect width="34.4096" height="34.4096" fill="white" transform="translate(27.2835 0.257812)"/>
</clipPath>
</defs>
</svg>

<svg fill="none" height="35" width="62" xmlns="http://www.w3.org/2000/svg" xmlns:xlink="http://www.w3.org/1999/xlink"><linearGradient id="a" gradientUnits="userSpaceOnUse" x1="32.84" x2="51.989" y1="27.788" y2="10.757"><stop offset=".073" stop-color="#aac4fd"/><stop offset="1" stop-color="#76a0fc"/></linearGradient><clipPath id="b"><path d="m0 0h34.41v34.41h-34.41z" transform="translate(27.284 .258)"/></clipPath><g clip-path="url(#b)"><circle cx="44.424" cy="17.399" fill="url(#a)" r="17.144"/><path d="m53.776 15.038-9.364-9.562-9.365 9.562 4.682 4.78 4.683-4.78 4.682 4.78z" fill="#fff"/><g fill="#1f2333"><path d="m44.034 28.456c-.465 0-.866-.084-1.201-.252a1.841 1.841 0 0 1 -.764-.73c-.173-.32-.26-.696-.26-1.13v-3.684h1.072v3.718c0 .347.098.62.293.82.2.2.487.3.86.3.374 0 .658-.1.853-.3.2-.2.3-.473.3-.82v-3.718h1.072v3.686c0 .433-.09.809-.268 1.128a1.78 1.78 0 0 1 -.763.731c-.33.168-.728.252-1.194.252zm4.675-.114v-5.683h2.468c.357 0 .668.062.934.187.265.124.47.3.617.527.146.228.219.496.219.804v.098c0 .34-.081.617-.244.828a1.432 1.432 0 0 1 -.6.462v.147c.216.01.384.086.503.227.119.135.178.317.178.544v1.859h-1.071v-1.705a.466.466 0 0 0 -.106-.317c-.065-.08-.176-.121-.333-.121h-1.493v2.143zm1.072-3.118h1.282c.255 0 .452-.067.593-.203a.732.732 0 0 0 .22-.552v-.08c0-.228-.071-.41-.212-.545-.14-.14-.341-.21-.6-.21h-1.284v1.59z"/><path clip-rule="evenodd" d="m35.801 28.476v-5.95h3.92v1.241h-2.58v1.088h2.354v1.242h-2.355v1.137h2.63v1.242zm6.97-.153a1.975 1.975 0 0 1 -.818-.784l-.001-.002c-.186-.342-.276-.741-.276-1.192v-3.82h1.34v3.852c0 .32.088.557.253.726.168.168.416.26.765.26.35 0 .595-.093.757-.259l.001-.001c.17-.17.261-.406.261-.726v-3.852h1.34v3.82c0 .451-.094.85-.285 1.193-.187.338-.461.6-.82.785-.353.18-.773.267-1.254.267s-.903-.087-1.261-.266h-.001zm3.22-.85c.178-.319.268-.695.268-1.128v-3.686h-1.072v3.718c0 .347-.1.62-.3.82-.195.2-.48.3-.853.3s-.66-.1-.86-.3c-.195-.2-.293-.473-.293-.82v-3.717h-1.071v3.686c0 .433.086.809.26 1.128.178.314.432.558.763.731.335.168.736.252 1.201.252.466 0 .864-.084 1.194-.252a1.78 1.78 0 0 0 .763-.73zm2.584 1.003v-5.95h2.602c.373 0 .704.064.99.199.286.134.512.326.673.576.162.252.24.546.24.876v.098c0 .362-.086.669-.27.91a1.58 1.58 0 0 1 -.49.425.75.75 0 0 1 .387.242c.145.165.211.38.211.63v1.994h-1.34v-1.839a.333.333 0 0 0 -.072-.229l-.002-.002-.001-.002c-.03-.036-.091-.072-.229-.072h-1.36v2.144zm1.206-2.277h1.493c.157 0 .268.04.333.121.07.082.106.187.106.317v1.705h1.071v-1.86c0-.226-.06-.408-.178-.543-.12-.14-.287-.217-.504-.227v-.147c.239-.097.439-.251.601-.462.163-.211.244-.488.244-.829v-.097c0-.308-.073-.576-.22-.804a1.44 1.44 0 0 0 -.616-.527 2.178 2.178 0 0 0 -.934-.187h-2.468v5.683h1.072zm1.79-2.26h-.002c-.108-.109-.27-.172-.506-.172h-1.149v1.324h1.15c.23 0 .39-.061.5-.166a.599.599 0 0 0 .177-.456v-.08c0-.198-.06-.342-.17-.448v-.001zm.085 1.082c-.14.136-.338.203-.593.203h-1.282v-1.59h1.282c.26 0 .46.07.601.21.14.136.211.317.211.544v.081a.732.732 0 0 1 -.22.552z" fill-rule="evenodd"/></g></g><path d="m17.775 34.828a17.167 17.167 0 0 0 17.208-17.208 17.167 17.167 0 0 0 -17.208-17.208 17.167 17.167 0 0 0 -17.208 17.208 17.167 17.167 0 0 0 17.208 17.208z" fill="#2775ca"/><g fill="#fff"><path d="m22.507 20.344c0-2.51-1.506-3.37-4.517-3.728-2.151-.287-2.581-.86-2.581-1.864s.717-1.65 2.15-1.65c1.291 0 2.008.43 2.367 1.506a.54.54 0 0 0 .502.359h1.147a.49.49 0 0 0 .502-.502v-.072a3.582 3.582 0 0 0 -3.227-2.94v-1.72c0-.287-.215-.502-.573-.574h-1.077c-.287 0-.502.215-.574.574v1.649c-2.15.287-3.513 1.72-3.513 3.513 0 2.366 1.434 3.298 4.445 3.657 2.008.358 2.653.788 2.653 1.936 0 1.147-1.003 1.936-2.366 1.936-1.864 0-2.51-.79-2.724-1.865-.072-.286-.287-.43-.502-.43h-1.219a.49.49 0 0 0 -.501.502v.072c.287 1.792 1.434 3.083 3.8 3.441v1.721c0 .287.215.502.574.574h1.075c.287 0 .502-.215.574-.574v-1.72c2.15-.36 3.585-1.865 3.585-3.8z"/><path d="m14.118 27.876c-5.592-2.008-8.46-8.245-6.38-13.767 1.075-3.011 3.44-5.305 6.38-6.38.287-.144.43-.36.43-.718v-1.004c0-.286-.143-.502-.43-.573-.071 0-.215 0-.287.071-6.811 2.151-10.539 9.393-8.387 16.205a12.899 12.899 0 0 0 8.389 8.389c.286.143.573 0 .645-.287.072-.072.072-.143.072-.287v-1.004c0-.215-.216-.502-.43-.645zm7.6-22.37c-.286-.144-.573 0-.645.286-.071.072-.071.144-.071.287v1.004c0 .287.215.573.43.717 5.592 2.007 8.46 8.245 6.381 13.766-1.075 3.012-3.442 5.306-6.381 6.382-.287.143-.43.358-.43.717v1.004c0 .286.143.501.43.573.072 0 .215 0 .287-.072 6.811-2.15 10.54-9.392 8.389-16.204-1.291-4.087-4.446-7.17-8.39-8.46z"/></g></svg>
